src/assets/icons/megaphone.svg

<svg width="14" height="14" viewBox="0 0 14 14" fill="none" xmlns="http://www.w3.org/2000/svg">
<g id="megaphone">
<g clip-path="url(#clip0_156_4491)">
<path id="Vector" d="M12.3987 0.38237H11.2262C10.3434 0.38237 9.625 1.10075 9.625 1.98362V2.37737L1.3125 4.16413V3.71875C1.3125 3.3565 1.0185 3.0625 0.65625 3.0625C0.294 3.0625 0 3.3565 0 3.71875V4.977V8.477V9.84375C0 10.206 0.294 10.5 0.65625 10.5C1.0185 10.5 1.3125 10.206 1.3125 9.84375V9.289L9.625 11.0758V11.4695C9.625 12.3524 10.3434 13.0708 11.2262 13.0708H12.3987C13.2816 13.0708 14 12.3524 14 11.4695V1.9845C14 1.10075 13.2816 0.38237 12.3987 0.38237ZM1.3125 7.94675V5.50637L9.625 3.7205V9.73262L1.3125 7.94675ZM12.6875 11.4686C12.6875 11.6279 12.558 11.7574 12.3987 11.7574H11.2262C11.067 11.7574 10.9375 11.6279 10.9375 11.4686V10.5446V2.90675V1.98275C10.9375 1.8235 11.067 1.694 11.2262 1.694H12.3987C12.558 1.694 12.6875 1.8235 12.6875 1.98275V11.4686ZM7.84525 11.9236C7.525 12.9369 6.587 13.6176 5.50987 13.6176C4.16062 13.6176 3.06337 12.5361 3.06337 11.207C3.06337 11.1081 3.0695 11.0084 3.08175 10.913C3.1255 10.5534 3.45362 10.2996 3.81237 10.3416C4.172 10.3854 4.42837 10.7126 4.38462 11.0723C4.37937 11.1169 4.37587 11.1615 4.37587 11.207C4.37587 11.8125 4.88512 12.3051 5.50987 12.3051C6.01125 12.3051 6.447 11.9936 6.594 11.529C6.70337 11.1825 7.07262 10.9882 7.41737 11.1011C7.76212 11.2096 7.95375 11.578 7.84525 11.9236Z" fill="black"/>
</g>
</g>
<defs>
<clipPath id="clip0_156_4491">
<rect width="14" height="14" fill="white"/>
</clipPath>
</defs>
</svg>

<svg xmlns="http://www.w3.org/2000/svg" fill="none" viewBox="0 0 14 14"><g clip-path="url(#a)"><path fill="#000" d="M12.399.382h-1.173c-.883 0-1.601.719-1.601 1.602v.393L1.313 4.164V3.72a.656.656 0 0 0-1.313 0v6.125a.656.656 0 0 0 1.313 0v-.555l8.312 1.787v.393c0 .883.718 1.602 1.601 1.602H12.4c.883 0 1.601-.719 1.601-1.601V1.985C14 1.1 13.282.382 12.399.382M1.313 7.947v-2.44L9.625 3.72v6.012zm11.375 3.522a.29.29 0 0 1-.29.288h-1.172a.29.29 0 0 1-.289-.288V1.983c0-.16.13-.289.29-.289h1.172c.159 0 .289.13.289.289zm-4.843.455a2.43 2.43 0 0 1-2.335 1.694c-1.35 0-2.447-1.082-2.447-2.411q0-.15.019-.294a.656.656 0 0 1 1.303.16q-.01.066-.01.134c0 .605.51 1.098 1.135 1.098.501 0 .937-.311 1.084-.776a.656.656 0 0 1 1.251.395"/></g><defs><clipPath id="a"><path fill="#fff" d="M0 0h14v14H0z"/></clipPath></defs></svg>
